client/assets/images/customer-home/illustration--import-complete.svg

<svg width="202" height="152" fill="none" xmlns="http://www.w3.org/2000/svg"><path d="M100.561 31.777c-48.294 0-87.443 39.15-87.443 87.443 0 11.324 2.152 22.145 6.07 32.077l162.664.204c3.97-9.987 6.152-20.879 6.152-32.281 0-48.294-39.15-87.443-87.443-87.443z" fill="#E6F2E8"/><rect x="28.704" y="34.758" width="121.581" height="116.204" rx="1.5" fill="#fff" stroke="#C3C4C7"/><path stroke="#C3C4C7" stroke-width="2" stroke-linecap="round" d="M41.032 113.903h62.516m-62.441 10.678h34.409m-34.409 9.677h34.409"/><path fill="#F6F7F7" d="M29.279 51.462H151.86V102H29.279z"/><circle cx="44.333" cy="66.516" r="4.801" fill="#DCDCDE" stroke="#A7AAAD"/><path fill="#DCDCDE" d="M32.505 38.559h8.602v8.602h-8.602z"/><path stroke="#C3C4C7" stroke-linecap="round" d="M28.704 50.962h121.581M28.704 102.575h121.581"/><rect x="49.21" y="24.081" width="123.581" height="126.806" rx="2.5" fill="#fff" stroke="#01283d"/><path fill="#055d9c" d="M54.011 28.882h8.602v8.602h-8.602z"/><path stroke="#02395c" stroke-width="2" stroke-linecap="round" d="M63.613 105.301h62.516m10.602 0h10.903m-83.946 10.678h34.409m10.752 0h47.312"/><path d="M70.49 13.1c-.233-.114-.584-.114-.701 0l-1.52.683c-.234.114-.35 0-.234-.227l.702-1.48c.117-.228.117-.57 0-.683l-.702-1.594c-.117-.227 0-.341.234-.227l1.52.683c.234.113.585.113.701 0l1.52-.683c.234-.114.351 0 .234.227l-.701 1.48c-.234.228-.234.57-.117.797l.701 1.48c.117.227 0 .341-.233.227L70.49 13.1z" fill="#D48FC8"/><path d="M183.521 3.602c-.1-.2-.3-.4-.5-.5l-1-.4c-.2-.1-.2-.2 0-.2l1-.4c.2-.1.4-.3.5-.5l.4-1c.1-.2.2-.2.2 0l.401 1c.1.2.3.4.5.5l1 .4c.2.1.2.2 0 .2l-1 .4c-.2.1-.4.3-.5.5l-.401 1c-.1.2-.2.2-.2 0l-.4-1z" fill="#399ce3"/><path d="M99.248 8.219c-.409-.205-1.023-.205-1.228 0l-2.66 1.228c-.409.204-.613 0-.409-.41l1.228-2.66c.204-.409.204-1.023 0-1.227L94.95 2.49c-.204-.41 0-.614.41-.41l2.66 1.228c.409.205 1.023.205 1.227 0l2.66-1.228c.41-.204.614 0 .41.41l-1.228 2.66c-.205.409-.205 1.023 0 1.227l1.228 2.66c.204.41 0 .614-.41.41l-2.66-1.228z" fill="#02395c"/><path d="M63.688 126.731H111" stroke="#02395c" stroke-width="2" stroke-linecap="round"/><path fill="#e9f0f5" d="M49.71 41.785h122.581v50.538H49.71zm12.903 97.85h96.774v10.753H62.613z"/><path d="M119.064 67.591L88.419 92.323h83.871V85.87l-25.806-28.494-19.355 17.741-8.065-7.526z" fill="#DCDCDE"/><path d="M89.495 91.785l29.569-24.194 15.054 13.979" stroke="#101517" stroke-linecap="round" stroke-linejoin="round"/><path d="M114.226 75.656L111 74.043l8.064-6.452 6.452 5.914-1.075 1.076-3.764-.538-6.451 1.613z" fill="#fff" stroke="#101517" stroke-linecap="round" stroke-linejoin="round"/><path d="M127.129 75.118l19.355-17.741 25.269 27.956" stroke="#101517" stroke-linecap="round" stroke-linejoin="round"/><path d="M142.72 65.441l-3.225-1.613 6.989-6.452 5.914 6.452-3.226 1.613-3.226-1.075-3.226 1.075z" fill="#fff" stroke="#101517" stroke-linecap="round" stroke-linejoin="round"/><circle cx="64.763" cy="56.839" r="4.801" fill="#F5E6B3" stroke="#F0C930"/><path stroke="#A7AAAD" stroke-linecap="round" d="M97.521 32.683h18.355m5.301 0h14.054m5.301 0h22.656M50.21 41.285h121.58M50.21 92.898h121.58"/><path d="M167.699 27.31c-.226-.941-1.133-1.883-2.04-2.119l-7.479-2.826c-.907-.235-.907-.706 0-1.177l7.479-2.826c.907 0 1.814-.942 2.04-1.884l2.72-7.772c.227-.941.68-.941 1.133 0l2.72 7.772c.227.942 1.133 1.884 2.04 2.12l7.479 2.825c.907.236.907.707 0 1.178l-7.706 2.59c-.906.236-1.813 1.178-2.04 2.12l-2.719 7.771c-.227.942-.68.942-1.134 0l-2.493-7.771z" fill="#F0C930"/><path d="M1 151.462h8.602m191.398 0h-4.301m-4.301 0H13.903" stroke="#01283d" stroke-linecap="round" stroke-linejoin="round"/></svg>

<svg width="202" height="152" fill="none" xmlns="http://www.w3.org/2000/svg"><path d="M100.561 31.777c-48.294 0-87.443 39.15-87.443 87.443 0 11.324 2.152 22.145 6.07 32.077l162.664.204c3.97-9.987 6.152-20.879 6.152-32.281 0-48.294-39.15-87.443-87.443-87.443z" fill="#E6F2E8"/><rect x="28.704" y="34.758" width="121.581" height="116.204" rx="1.5" fill="#fff" stroke="#C3C4C7"/><path stroke="#C3C4C7" stroke-width="2" stroke-linecap="round" d="M41.032 113.903h62.516M41.107 124.581h34.409M41.107 134.258h34.409"/><path fill="#F6F7F7" d="M29.279 51.462H151.86V102H29.279z"/><circle cx="44.333" cy="66.516" r="4.801" fill="#DCDCDE" stroke="#A7AAAD"/><path fill="#DCDCDE" d="M32.505 38.559h8.602v8.602h-8.602z"/><path stroke="#C3C4C7" stroke-linecap="round" d="M28.704 50.962h121.581M28.704 102.575h121.581"/><rect x="49.21" y="24.081" width="123.581" height="126.806" rx="2.5" fill="#fff" stroke="#01283d"/><path fill="#055d9c" d="M54.011 28.882h8.602v8.602h-8.602z"/><path stroke="#02395c" stroke-width="2" stroke-linecap="round" d="M63.613 105.301h62.516M136.731 105.301h10.903M63.688 115.979h34.409M108.849 115.979h47.312"/><path d="M70.49 13.1c-.233-.114-.584-.114-.701 0l-1.52.683c-.234.114-.35 0-.234-.227l.702-1.48c.117-.228.117-.57 0-.683l-.702-1.594c-.117-.227 0-.341.234-.227l1.52.683c.234.113.585.113.701 0l1.52-.683c.234-.114.351 0 .234.227l-.701 1.48c-.234.228-.234.57-.117.797l.701 1.48c.117.227 0 .341-.233.227L70.49 13.1z" fill="#D48FC8"/><path d="M183.521 3.602c-.1-.2-.3-.4-.5-.5l-1-.4c-.2-.1-.2-.2 0-.2l1-.4c.2-.1.4-.3.5-.5l.4-1c.1-.2.2-.2.2 0l.401 1c.1.2.3.4.5.5l1 .4c.2.1.2.2 0 .2l-1 .4c-.2.1-.4.3-.5.5l-.401 1c-.1.2-.2.2-.2 0l-.4-1z" fill="#399ce3"/><path d="M99.248 8.219c-.409-.205-1.023-.205-1.228 0l-2.66 1.228c-.409.204-.613 0-.409-.41l1.228-2.66c.204-.409.204-1.023 0-1.227L94.95 2.49c-.204-.41 0-.614.41-.41l2.66 1.228c.409.205 1.023.205 1.227 0l2.66-1.228c.41-.204.614 0 .41.41l-1.228 2.66c-.205.409-.205 1.023 0 1.227l1.228 2.66c.204.41 0 .614-.41.41l-2.66-1.228z" fill="#02395c"/><path d="M63.688 126.731H111" stroke="#02395c" stroke-width="2" stroke-linecap="round"/><path fill="#e9f0f5" d="M49.71 41.785h122.581v50.538H49.71zM62.613 139.635h96.774v10.753H62.613z"/><path d="M119.064 67.591L88.419 92.323h83.871V85.87l-25.806-28.494-19.355 17.741-8.065-7.526z" fill="#DCDCDE"/><path d="M89.495 91.785l29.569-24.194 15.054 13.979" stroke="#101517" stroke-linecap="round" stroke-linejoin="round"/><path d="M114.226 75.656L111 74.043l8.064-6.452 6.452 5.914-1.075 1.076-3.764-.538-6.451 1.613z" fill="#fff" stroke="#101517" stroke-linecap="round" stroke-linejoin="round"/><path d="M127.129 75.118l19.355-17.741 25.269 27.956" stroke="#101517" stroke-linecap="round" stroke-linejoin="round"/><path d="M142.72 65.441l-3.225-1.613 6.989-6.452 5.914 6.452-3.226 1.613-3.226-1.075-3.226 1.075z" fill="#fff" stroke="#101517" stroke-linecap="round" stroke-linejoin="round"/><circle cx="64.763" cy="56.839" r="4.801" fill="#F5E6B3" stroke="#F0C930"/><path stroke="#A7AAAD" stroke-linecap="round" d="M97.521 32.683h18.355M121.177 32.683h14.054M140.532 32.683h22.656M50.21 41.285h121.58M50.21 92.898h121.58"/><path d="M167.699 27.31c-.226-.941-1.133-1.883-2.04-2.119l-7.479-2.826c-.907-.235-.907-.706 0-1.177l7.479-2.826c.907 0 1.814-.942 2.04-1.884l2.72-7.772c.227-.941.68-.941 1.133 0l2.72 7.772c.227.942 1.133 1.884 2.04 2.12l7.479 2.825c.907.236.907.707 0 1.178l-7.706 2.59c-.906.236-1.813 1.178-2.04 2.12l-2.719 7.771c-.227.942-.68.942-1.134 0l-2.493-7.771z" fill="#F0C930"/><path d="M1 151.462h8.602m191.398 0h-4.301m-4.301 0H13.903" stroke="#01283d" stroke-linecap="round" stroke-linejoin="round"/></svg>
